X:6
T:6. Der Finker
K:F
M:3/4
L:1/8
|: c2 cd cB | \
M:4/4
L:1/4
(Ac) (FA) | \
M:3/4
L:1/8
(G2 B2) E2 | (FE)FGAB | c2 cdcB | \
M:4/4
L:1/4
(Ac) (FA) |
M:3/4
L:1/8
G2 GFEG | F2 z2 z2 :| G3 ABc | \
M:4/4
L:1/4
(BG) (BG) | \
M:3/4
L:1/8
A3 Bcd | \
M:4/4
L:1/4
(cA) (cA) |
M:3/4
L:1/8
G3 ABc | B2 (BA) G2 | (ABc=Bcd) | c2 z2 FA ||
K:Bb
M:3/4
L:1/8
|: F2 FG FE | \
M:4/4
L:1/4
(DF) (Bd) | \
M:3/4
L:1/8
(c2e2) A2 | (BA)BGFE | F2 FGFE | \
M:4/4
L:1/4
(DF) (Bd) |
M:3/4
L:1/8
c2 (cB)Ac | B2 z2 z2 :| c3 def | \
M:4/4
L:1/4
(ec) (ec) | \
M:3/4
L:1/8
d3 efg | \
M:4/4
L:1/4
(fd) (fd) |
M:3/4
L:1/8
c3 def | e2 ed c2 | (def=efg) | f2 z2 B,D |]
N:Written with second voice, 2012 Mar 30
N: Within each half, AABA

